icons/svg/call-activities_24.svg

<?xml version="1.0" encoding="UTF-8"?>
<svg width="24px" height="24px" viewBox="0 0 24 24" version="1.1" xmlns="http://www.w3.org/2000/svg" xmlns:xlink="http://www.w3.org/1999/xlink">
    <!-- Generator: Sketch 63.1 (92452) - https://sketch.com -->
    <title>call_activities_24</title>
    <desc>Created with Sketch.</desc>
    <g id="Icons-Webex" stroke="none" stroke-width="1" fill="none" fill-rule="evenodd">
        <g id="call_activities_24" fill="#171B1F" fill-rule="nonzero">
            <g id="Shape">
                <path d="M5.19009917,0 C6.47209917,0 7.62809917,0.761 8.13509917,1.939 L8.13509917,1.939 L9.13709917,4.271 C9.59009917,5.323 9.55609917,6.515 9.04309917,7.54 L9.04309917,7.54 L8.36709917,8.892 C8.21709917,9.191 8.25509917,9.544 8.46409917,9.813 C9.90209917,11.661 11.9960992,13.741 14.2100992,15.518 C14.4740992,15.73 14.8350992,15.77 15.1330992,15.621 L15.1330992,15.621 L16.4610992,14.957 C17.4850992,14.445 18.6770992,14.411 19.7300992,14.863 L19.7300992,14.863 L22.0610992,15.865 C23.2390992,16.372 24.0000992,17.528 24.0000992,18.81 L24.0000992,18.81 L24.0000992,21.464 C24.0000992,22.253 23.6430992,22.984 23.0200992,23.468 C22.5710992,23.818 22.0330992,24 21.4820992,24 C21.2760992,24 21.0680992,23.974 20.8620992,23.922 C16.7840992,22.886 12.1240992,19.971 8.07709917,15.924 C4.02909917,11.876 1.11309917,7.216 0.0780991736,3.138 C-0.113900826,2.384 0.0520991736,1.597 0.532099174,0.981 C1.01709917,0.358 1.74709917,0 2.53609917,0 L2.53609917,0 L5.19009917,0 Z M5.19009917,1 L2.53609917,1 C2.05809917,1 1.61509917,1.217 1.32109917,1.595 C1.03209917,1.966 0.932099174,2.439 1.04709917,2.892 C2.04009917,6.8 4.85909917,11.293 8.78409917,15.217 C12.7070992,19.141 17.1990992,21.96 21.1080992,22.953 C21.5620992,23.069 22.0340992,22.968 22.4050992,22.679 C22.7830992,22.385 23.0000992,21.943 23.0000992,21.464 L23.0000992,21.464 L23.0000992,18.81 C23.0000992,17.928 22.4760992,17.133 21.6660992,16.784 L21.6660992,16.784 L19.3350992,15.782 C18.5530992,15.446 17.6690992,15.472 16.9080992,15.852 L16.9080992,15.852 L15.5810992,16.516 C14.9360992,16.837 14.1520992,16.753 13.5840992,16.298 C11.3120992,14.474 9.15909917,12.334 7.67509917,10.427 C7.23409917,9.86 7.15409917,9.082 7.47209917,8.444 L7.47209917,8.444 L8.14809917,7.092 C8.52909917,6.332 8.55509917,5.447 8.21809917,4.666 L8.21809917,4.666 L7.21609917,2.334 C6.86709917,1.524 6.07209917,1 5.19009917,1 L5.19009917,1 Z M18.5,0 C18.7454599,0 18.9496084,0.176875161 18.9919443,0.410124368 L19,0.5 L19,5 L23.5,5 C23.7761424,5 24,5.22385763 24,5.5 C24,5.74545989 23.8231248,5.94960837 23.5898756,5.99194433 L23.5,6 L19,6 L19,10.5 C19,10.7761424 18.7761424,11 18.5,11 C18.2545401,11 18.0503916,10.8231248 18.0080557,10.5898756 L18,10.5 L18,6 L13.5,6 C13.2238576,6 13,5.77614237 13,5.5 C13,5.25454011 13.1768752,5.05039163 13.4101244,5.00805567 L13.5,5 L18,5 L18,0.5 C18,0.223857625 18.2238576,0 18.5,0 Z"></path>
            </g>
        </g>
    </g>
</svg>

<svg width="24" height="24" xmlns="http://www.w3.org/2000/svg"><path d="M5.19 0c1.282 0 2.438.761 2.945 1.939l1.002 2.332a3.87 3.87 0 01-.094 3.269l-.676 1.352a.861.861 0 00.097.921c1.438 1.848 3.532 3.928 5.746 5.705a.861.861 0 00.923.103l1.328-.664a3.877 3.877 0 013.27-.094l2.33 1.002a3.203 3.203 0 011.94 2.945v2.654c0 .789-.358 1.52-.98 2.004a2.493 2.493 0 01-2.159.454c-4.078-1.036-8.738-3.951-12.785-7.998C4.03 11.876 1.113 7.216.078 3.138A2.49 2.49 0 01.532.981 2.524 2.524 0 012.536 0H5.19zm0 1H2.536a1.53 1.53 0 00-1.215.595 1.498 1.498 0 00-.274 1.297C2.04 6.8 4.86 11.293 8.784 15.217c3.923 3.924 8.415 6.743 12.324 7.736.454.116.926.015 1.297-.274.378-.294.595-.736.595-1.215V18.81c0-.882-.524-1.677-1.334-2.026l-2.33-1.002a2.878 2.878 0 00-2.428.07l-1.327.664a1.871 1.871 0 01-1.997-.218c-2.272-1.824-4.425-3.964-5.909-5.871a1.88 1.88 0 01-.203-1.983l.676-1.352c.381-.76.407-1.645.07-2.426L7.216 2.334A2.205 2.205 0 005.19 1zM18.5 0a.5.5 0 01.492.41L19 .5V5h4.5a.5.5 0 01.09.992L23.5 6H19v4.5a.5.5 0 01-.992.09L18 10.5V6h-4.5a.5.5 0 01-.09-.992L13.5 5H18V.5a.5.5 0 01.5-.5z" fill="#171B1F" fill-rule="nonzero"/></svg>
